filter-cog.svg

<svg fill="currentColor" viewBox="0 0 24 24"><path d="m22.77 19.32-1.07-.82c.02-.17.04-.33.04-.5s-.01-.33-.04-.5l1.06-.82a.26.26 0 0 0 .06-.32l-1-1.73c-.06-.13-.19-.13-.32-.13l-1.23.5c-.27-.18-.54-.35-.85-.47l-.19-1.32A.236.236 0 0 0 19 13h-2a.26.26 0 0 0-.26.21l-.19 1.32c-.3.13-.59.29-.85.47l-1.24-.5c-.11 0-.24 0-.31.13l-1 1.73c-.06.11-.04.24.06.32l1.06.82a4.2 4.2 0 0 0 0 1l-1.06.82a.26.26 0 0 0-.06.32l1 1.73c.06.13.19.13.31.13l1.24-.5c.26.18.54.35.85.47l.19 1.32c.02.12.12.21.26.21h2c.11 0 .22-.09.24-.21l.19-1.32c.3-.13.57-.29.84-.47l1.23.5c.13 0 .26 0 .33-.13l1-1.73a.26.26 0 0 0-.06-.32M18 19.5c-.84 0-1.5-.67-1.5-1.5s.67-1.5 1.5-1.5 1.5.67 1.5 1.5-.67 1.5-1.5 1.5M3 3c-.22 0-.43.08-.62.22a1 1 0 0 0-.17 1.4L7.97 12H8v5.87c-.04.29.06.6.29.83l2.01 2.01c.35.35.89.37 1.28.09-.38-.89-.58-1.84-.58-2.8 0-1.27.35-2.5 1-3.6V12h.03l5.76-7.38a1 1 0 0 0-.17-1.4c-.19-.14-.4-.22-.62-.22z"/></svg>

<svg  viewBox="0 0 24 24" fill="currentColor"><path  d="M22.77 19.32L21.7 18.5C21.72 18.33 21.74 18.17 21.74 18S21.73 17.67 21.7 17.5L22.76 16.68C22.85 16.6 22.88 16.47 22.82 16.36L21.82 14.63C21.76 14.5 21.63 14.5 21.5 14.5L20.27 15C20 14.82 19.73 14.65 19.42 14.53L19.23 13.21C19.22 13.09 19.11 13 19 13H17C16.87 13 16.76 13.09 16.74 13.21L16.55 14.53C16.25 14.66 15.96 14.82 15.7 15L14.46 14.5C14.35 14.5 14.22 14.5 14.15 14.63L13.15 16.36C13.09 16.47 13.11 16.6 13.21 16.68L14.27 17.5C14.25 17.67 14.24 17.83 14.24 18S14.25 18.33 14.27 18.5L13.21 19.32C13.12 19.4 13.09 19.53 13.15 19.64L14.15 21.37C14.21 21.5 14.34 21.5 14.46 21.5L15.7 21C15.96 21.18 16.24 21.35 16.55 21.47L16.74 22.79C16.76 22.91 16.86 23 17 23H19C19.11 23 19.22 22.91 19.24 22.79L19.43 21.47C19.73 21.34 20 21.18 20.27 21L21.5 21.5C21.63 21.5 21.76 21.5 21.83 21.37L22.83 19.64C22.89 19.53 22.86 19.4 22.77 19.32M18 19.5C17.16 19.5 16.5 18.83 16.5 18S17.17 16.5 18 16.5 19.5 17.17 19.5 18 18.83 19.5 18 19.5M3 3C2.78 3 2.57 3.08 2.38 3.22C1.95 3.56 1.87 4.19 2.21 4.62L7.97 12H8V17.87C7.96 18.16 8.06 18.47 8.29 18.7L10.3 20.71C10.65 21.06 11.19 21.08 11.58 20.8C11.2 19.91 11 18.96 11 18C11 16.73 11.35 15.5 12 14.4V12H12.03L17.79 4.62C18.13 4.19 18.05 3.56 17.62 3.22C17.43 3.08 17.22 3 17 3H3Z"/></svg>
